X:11492
T:Mueira (XA 07)
R:Mueira
C:Tradicional
S:Msica Tradicional Asturiana, (C) Tello & Tito. Asturies, 2001.
S:http://pagina.de/MusTradAst <telloytito@asturies.org>
O:L.larn (Cangas del Narcea)
A:Asturies
Z:Mtodu de Xuacu Amieva 07
M:5/4
L:1/8
Q:1/4=126
K:C
Gc
|cc cc c2 c2 Bc|cB Bc c2 B2 AB|BA AG A2 G2 GB|
[M:4/4]
|BA AG A2 G2-|G6 GB|
[M:5/4]
|BA AG A2 B2 BB|BA AG A2 G4-|
[M:4/4]
|G5 z2 G|GG AB c c2 B|GG AB c2  B2-|
|BG GA B B2 A|Ac cB A2 G2-|G6 z2|
